X: 9
T: Ardrossan Hornpipe
C: Muriel Johnstone 1999
N: Tune for"Miss Johnstone of Ardrossan"
B: Roy Goldring "14 Social Dances for 2000"
R: reel
Z: 2015 John Chambers <jc:trillian.mit.edu>
M: 4/4
L: 1/8
K: A
{g}a2 |\
   "A"e2AB cAec | "E7"B2EG BGdB |\
[1 "A"cAeA "D"fA"A"eA | "E"B2E2 E2 :|\
[2 "A"cA"D"df "A"ec"E7"Bd | "A"c2"D"A2 "A"A2 |]
|: E2 |\
   "A"A2EA cAGA | "Bm"FBcB dB^AB |\
[1 "E"G2ef gefg | "A"a2A2 "E7"BEFG :|\
[2 "E7"G2gf ecBd | "A"c2"D"A2 "A"A2 |]
